!!!OTL: 1897. Fuchs im Loche.
!!!ODT: 1603
!!!ARE: Europa, Mitteleuropa, Deutschland
!!!SCT: E1897
!!!TXL: @@DE
!!!YEM: Copyright 1995, estate of Helmut Schaffrath.
**kern	**text
*ICvox	*
*M2/4	*
*k[f#]	*
*G:	*
!LO:TX:a:t=Alte Mel. mit dieſem Text in Hainhofers Lautenb. 1603.	!
{8dd	Fuchs,
=1	=1
16bL	beiß
16ccJ	.
16bL	mich
16aJ	.
8g	nicht,
8dd	Fuchs,
=2	=2
16bL	beiß
16ccJ	.
16bL	mich
16aJ	.
8g}	nicht!
{8dd	Du
=3	=3
8ee	haſt
8dd	ein
8cc	g'hö-
8b	-rig
=4	=4
8a	gro-
8a	-ßes
4a}	Maul
=5	=5
{8a	Du
8a	hätt'ſt
8f#	ein
8d	gu-
=6	=6
8dd	-ten
8dd	Schuſt'r
8b}	g'gebn,
{8dd	du
=7	=7
8b/	haſt
8g	die
16aL	Vorſt
16gJ	.
16aL	im
16f#J	.
=8	=8
4g	Maul.
8r}	.
==	==
!!!AGN: Kinder - Lied, Spiel
!!!ONB: ESAC (Essen Associative Code) Database: ERK3
!!!AMT: simple duple
!!!AIN: vox
!!!EED: Helmut Schaffrath
!!!EEV: 1.0
!!!GTL: Einige Kinderlieder. d) Spiel- und Tanzliedchen.
!!!URL-scan: https://rosdok.uni-rostock.de/mcrviewer/recordIdentifier/rosdok_ppn745177999/iview2/phys_0617.iview2?x=91.63276340678726&y=173.11845803866163&scale=0.7014306698522895&rotation=0&layout=singlePageLayout
!!!ENC: Anna Maria Matuszewska
!!!EEV: 2025/09/01
*-	*-
